X: 23266
T: Leaving Lismore
R: waltz
M: 3/4
K: Gmajor
|:G3 A B2|d4 g2|e2 d2 B2|d2 B2 A2|G3 A B2|d4 d2|e2 d2 B2|A4 D2|
G3 A B2|d4 g2|e2 d2 B2|d6|d2 e2 g2|B4 A2|BA G4|G6:|
g3 f g2|e4 d2|e2 d2 B2|d6|g3 f g2|e4 d2|e2 d2 B2|A6|
g3 f g2|e4 d2|e2 d2 B2|d6|d2 e2 g2|B4 A2|BA G4|G6|
g3 f g2|e4 d2|e2 d2 B2|d6|g3 f g2|e4 d2|e2 d2 B2|A6|
G3 A B2|d4 g2|e2 d2 B2|d6|d2 e2 g2|B4 A2|BA G4|G6||
|:G3 A B2|d4 g2|e3 d B2|d6|G3 A B2|d4 d2|e3 d B2|A6|
G3 A B2|d4 g2|e3 d B2|d6|d4 (3efg|B4 A2|BA G2 G2|G6:|
g3 f g2|e4 e2|e3 d B2|d6|g3 f g2|e4 e2|e3 d B2|A6|
g3 f g2|e4 e2|e3 d B2|d6|d4 (3efg|B4 A2|BA G2 G2|G6|
g3 f g2|e4 e2|e3 d B2|d6|g3 f g2|e4 e2|e3 d B2|A6|
G3 A B2|d4 g2|e3 d B2|d6|d4 (3efg|B4 A2|BA G2 G2|G6||

